X: 1
T: wrongvariant
M:4/4
L:1/4
Q:140
K:C
dff cee|def gfe|dff cee|dfe dBA| dff cee|def gfe|faf gfe|[2 dfe dBA:|[1 dfe dcB|]